X:1
T:Title
%%score { 1 | ( 2 3 ) }
L:1/8
M:4/4
K:F
V:1 treble nm="Grand Piano"
V:2 bass 
V:3 bass 
V:1
 z4 z2[Q:1/4=100] FG | A2 B2 A2 GF | c2 d2 c2 A2 | [EG][EG][EG][FA] [Ec]2 [GB]2 | A6 FG | %5
 A2 B2 A2 GF | c2 d2 c2 A2 | [B,DG][B,DG][DGB][DGB] [CFA]2 G2 |[M:3/4] F6 |[M:1/4] cc | %10
[M:4/4] [Ec]4 [EG]2 [GB]2 | A4 F2 A2 | [EG][EG][EG][FA] [GB]2 [FA]G | AAA[GB] [Ac]2 [Fc][Fc] | %14
 [Ec]4 [EG]2 [GB]2 | [CFA]4 [A,CF]2 z2 | [B,DG][B,DG][DGB][DGB] [CFA]2 [B,CG]2 | %17
[M:3/4] [F,A,CF]6 |] %18
V:2
 z4 z2 [F,A,C][F,B,C] | [F,CF]2 [F,DF]2 [F,CF]2 [F,B,C][F,A,C] | %2
 [F,A,F]2 [F,B,F]2 [F,F]2- [F,CF]2 | [C,C][C,C][C,C][C,C] [C,G,]2 [C,C]2 | [F,CF]6 [F,A,C][F,B,C] | %5
 [F,CF]2 [F,DF]2 [F,CF]2 [F,B,C][F,A,C] | [F,A,F]2 [F,B,F]2 [F,F]2- [F,CF]2 | %7
 B,,B,,G,,G,, C,2 [C,B,C]2 |[M:3/4] [F,A,C]6 |[M:1/4] [F,A,F][F,A,F] | %10
[M:4/4] [C,G,]4 [C,C]2 [C,C]2 | [F,CF]4 [F,A,C]2 [F,CF]2 | [C,C][C,C][C,C][C,C] [C,C]2 z E | %13
 [F,CF][F,CF][F,CF][F,C] [F,F]2 [F,A,][F,A,] | [C,G,]4 [C,C]2 [C,C]2 | F,4 F,2 z2 | %16
 B,,B,,G,,G,, C,2 C,2 |[M:3/4] F,,6 |] %18
V:3
 x8 | x8 | z4 A,2 z2 | x8 | x8 | x8 | z4 A,2 z2 | x8 |[M:3/4] x6 |[M:1/4] x2 |[M:4/4] x8 | x8 | %12
 z4 z2 [C,C]2 | x8 | x8 | x8 | x8 |[M:3/4] x6 |] %18

